X:7475
T:The Wild Irishman
O:england
M:4/4
L:1/8
S:Tommy Peoples, Donegal (fiddle)
R:Reel
D:From a 70's demo tape
H:Bars 10 and 11 droned heavily (A)
K:D
+d2D2+fd gdfd | dfed cdec | (3.d.d.dfd gdfd | fgfe dcBc |
(3.d.d.dfd gdfd | dfed cded | ~f3d gfge | ~c3A dcdf ||
edcB A2cA | eA(3.A.A.A eAfA | edcB A2(3.A.A.A | fgfe dcdf |
edcB ABcd | eA(3.A.A.A eAfA | edcB A2(3.A.A.A | fgfe (3dcd-dA ||


